X: 73
T:Red Haired Boy
M:4/4
L:1/8
Q:90
C:Traditional
R:Reel
K:A
A=G|:"A"E2 A2 ABcd|efec-"D"d2 cd|"A"e2 A2 ABcA|"G"B=GEFG2 G-F|!
"A"E2 A2 ABcd|efec-"D"d2 cd|"A"eaga faed|[1"E"(3cdc A2 "A"A2 A=G:|[2"E"(
3cdc A2 "A"A2 ef||!
"G"gfef gfef|gfec "D"d2 cd|"A"e2 A2 ABcA|BAEF "G"G2GF|"A"E2A2 ABcd |!
efec "D"d2| cd|"A"eaga faed|[1"E"(3cdc A2 "A"A2 ef:|[2"E" (3cdc A2 "A"A4
|]
